X:1795
L:1/8
M:4/4
K:C
 e be A da | (D A da |[M:6/8][K:A] G)S .ee educ e"^Ambiguous Tunes"[Q:1/8=160] .e | eAA eAA | 
 efe edB | eAA ege | dBA A2 c/d/ | eAA eAA | efe edB | def gfe | dBA A2 :| a | afa geg | fdf ecA | 
 afa geg | dcB A2 a | afa geg | fdf ecA | def gfe | dBA A2 :|

